dist/assets/img/face.svg

<svg width="249" height="227" viewBox="0 0 249 227" fill="none" xmlns="http://www.w3.org/2000/svg">
<path fill-rule="evenodd" clip-rule="evenodd" d="M157.075 175.3C158.673 173.406 159.473 170.751 159.473 167.339V153.86H138.235V167.339C138.235 170.751 139.099 173.406 140.828 175.3C142.557 177.193 145.298 178.14 149.049 178.14C152.801 178.14 155.476 177.193 157.075 175.3ZM131.09 186.714C127.567 182.524 125.805 176.541 125.805 168.763V153.86H78V139H172V169.735C172 176.819 170.14 182.469 166.421 186.681C162.702 190.894 156.944 193 149.147 193C140.633 193 134.614 190.904 131.09 186.714Z" fill="#FFAB4F"/>
<mask id="mask0" mask-type="alpha" maskUnits="userSpaceOnUse" x="0" y="0" width="249" height="227">
<path fill-rule="evenodd" clip-rule="evenodd" d="M0 227H249V0H0V227Z" fill="white"/>
</mask>
<g mask="url(#mask0)">
<path fill-rule="evenodd" clip-rule="evenodd" d="M69.281 34.033H225.678V22.8021H69.281V34.033ZM22.9793 204.198H225.678V56.8351H22.9793V204.198ZM28.6264 22.5349C31.764 22.5349 34.3075 25.0588 34.3075 28.1722C34.3075 31.2855 31.764 33.8094 28.6264 33.8094C25.4889 33.8094 22.9454 31.2855 22.9454 28.1722C22.9454 25.0588 25.4889 22.5349 28.6264 22.5349ZM51.9487 22.5349C55.0863 22.5349 57.6298 25.0588 57.6298 28.1722C57.6298 31.2855 55.0863 33.8094 51.9487 33.8094C48.8112 33.8094 46.2677 31.2855 46.2677 28.1722C46.2677 25.0588 48.8112 22.5349 51.9487 22.5349ZM11.5795 0C5.22248 0 0 4.94397 0 11.254V215.684C0 221.992 5.22248 227 11.5795 227H237.345C243.707 227 249 221.992 249 215.684V11.254C249 4.94397 243.707 0 237.345 0H11.5795Z" fill="#657D95"/>
<path fill-rule="evenodd" clip-rule="evenodd" d="M98 108.6L83.5999 94.4931L97.9972 80.3921L88.3941 71L73.9957 85.0992L59.5994 71L50 80.3921L64.3994 94.4995L50 108.6L59.5994 118L73.9957 103.9L88.3992 118L98 108.6Z" fill="#FFAB4F"/>
<path fill-rule="evenodd" clip-rule="evenodd" d="M200 108.6L185.6 94.4931L199.997 80.3921L190.394 71L175.996 85.0992L161.599 71L152 80.3921L166.399 94.4995L152 108.6L161.599 118L175.996 103.9L190.399 118L200 108.6Z" fill="#657D95"/>
</g>
</svg>

<svg width="249" height="227" viewBox="0 0 249 227" fill="none" xmlns="http://www.w3.org/2000/svg"><path fill-rule="evenodd" clip-rule="evenodd" d="M157.075 175.3c1.598-1.894 2.398-4.549 2.398-7.961V153.86h-21.238v13.479c0 3.412.864 6.067 2.593 7.961 1.729 1.893 4.47 2.84 8.221 2.84 3.752 0 6.427-.947 8.026-2.84zm-25.985 11.414c-3.523-4.19-5.285-10.173-5.285-17.951V153.86H78V139h94v30.735c0 7.084-1.86 12.734-5.579 16.946-3.719 4.213-9.477 6.319-17.274 6.319-8.514 0-14.533-2.096-18.057-6.286z" fill="#FFAB4F"/><mask id="mask0" maskUnits="userSpaceOnUse" x="0" y="0" width="249" height="227"><path fill-rule="evenodd" clip-rule="evenodd" d="M0 227h249V0H0v227z" fill="#fff"/></mask><g mask="url(#mask0)" fill-rule="evenodd" clip-rule="evenodd"><path d="M69.281 34.033h156.397v-11.23H69.281v11.23zM22.979 204.198h202.699V56.835H22.979v147.363zm5.647-181.663c3.138 0 5.681 2.524 5.681 5.637 0 3.113-2.543 5.637-5.68 5.637-3.138 0-5.682-2.523-5.682-5.637 0-3.113 2.544-5.637 5.681-5.637zm23.323 0c3.137 0 5.68 2.524 5.68 5.637 0 3.113-2.543 5.637-5.68 5.637-3.138 0-5.681-2.523-5.681-5.637 0-3.113 2.543-5.637 5.68-5.637zM11.579 0C5.222 0 0 4.944 0 11.254v204.43C0 221.992 5.222 227 11.58 227h225.765c6.362 0 11.655-5.008 11.655-11.316V11.254C249 4.944 243.707 0 237.345 0H11.579z" fill="#657D95"/><path d="M98 108.6L83.6 94.493l14.397-14.1L88.394 71 73.996 85.1 59.599 71 50 80.392 64.4 94.5 50 108.6l9.6 9.4 14.396-14.1L88.399 118 98 108.6z" fill="#FFAB4F"/><path d="M200 108.6l-14.4-14.107 14.397-14.1L190.394 71l-14.398 14.1L161.599 71 152 80.392 166.399 94.5 152 108.6l9.599 9.4 14.397-14.1 14.403 14.1 9.601-9.4z" fill="#657D95"/></g></svg>
